icon/pk/teapot.svg

<svg viewBox="0 0 48 48" fill="none" xmlns="http://www.w3.org/2000/svg" height="1em" width="1em">
  <path d="M23.0013 13C15.7011 13 9.54283 18.0701 7.62207 25H38.3805C36.4597 18.0701 30.3014 13 23.0013 13Z" stroke="black" stroke-width="4" stroke-linecap="round" stroke-linejoin="round"/>
  <path d="M7.00098 29.5926C7.00098 34.0112 8.66648 38.0265 11.382 41H34.62C37.3355 38.0265 39.001 34.0112 39.001 29.5926C39.001 27.9993 38.7844 26.4585 38.3802 25H7.62177C7.21753 26.4585 7.00098 27.9993 7.00098 29.5926Z" fill="#2F88FF" stroke="black" stroke-width="4" stroke-linecap="round" stroke-linejoin="round"/>
  <path d="M27 13V11C27 8.79086 25.2091 7 23 7V7C20.7909 7 19 8.79086 19 11V13" stroke="black" stroke-width="4" stroke-linecap="round" stroke-linejoin="round"/>
  <path d="M7.0006 27.9999C7.0006 27.9999 5.01521 27.8685 4.00007 25.4999C2.5 21.9999 5.00023 19.9998 6.00025 16.9999C6.76104 14.7176 5.20688 13.014 4.41976 12.3296C4.16754 12.1103 4.00053 11.7992 4.00044 11.4649L4.00028 10.8473C4.00015 10.3583 4.35398 9.94412 4.84258 9.92617C5.87825 9.88814 7.66273 9.9969 9.00029 10.9999C11.0006 12.4999 12.0006 16.9999 12.0006 16.9999" stroke="black" stroke-width="4" stroke-linecap="round" stroke-linejoin="round"/>
  <path d="M9 41L37 41" stroke="black" stroke-width="4" stroke-linecap="round" stroke-linejoin="round"/>
  <path d="M39 25C41.7614 25 44 22.7614 44 20C44 17.2386 41.7614 15 39 15C36.9497 15 35.1876 16.2341 34.416 18" stroke="black" stroke-width="4" stroke-linecap="round" stroke-linejoin="round"/>
</svg>

<svg width="48" height="48" fill="none" xmlns="http://www.w3.org/2000/svg"><path d="M23.001 13c-7.3 0-13.458 5.07-15.379 12H38.38c-1.92-6.93-8.079-12-15.379-12Z" stroke="#000" stroke-width="4" stroke-linecap="round" stroke-linejoin="round"/><path d="M7.001 29.593c0 4.418 1.665 8.433 4.381 11.407H34.62c2.716-2.974 4.381-6.989 4.381-11.407 0-1.594-.217-3.134-.62-4.593H7.62c-.403 1.459-.62 3-.62 4.593Z" fill="#2F88FF" stroke="#000" stroke-width="4" stroke-linecap="round" stroke-linejoin="round"/><path d="M27 13v-2a4 4 0 0 0-4-4v0a4 4 0 0 0-4 4v2M7 28s-1.985-.131-3-2.5C2.5 22 5 20 6 17c.761-2.282-.793-3.986-1.58-4.67-.252-.22-.42-.53-.42-.865v-.618c0-.489.354-.903.843-.92C5.878 9.887 7.663 9.996 9 11c2 1.5 3 6 3 6M9 41h28M39 25a5 5 0 1 0-4.584-7" stroke="#000" stroke-width="4" stroke-linecap="round" stroke-linejoin="round"/></svg>
